src/pos-icons/map-marker-right.svg

<svg height="24" viewBox="0 0 24 24" width="24" xmlns="http://www.w3.org/2000/svg"><path d="m9 11.5c-1.38 0-2.5-1.12-2.5-2.5s1.12-2.5 2.5-2.5 2.5 1.12 2.5 2.5-1.12 2.5-2.5 2.5m0-9.5c-3.87 0-7 3.13-7 7 0 5.25 7 13 7 13s7-7.75 7-13c0-3.87-3.13-7-7-7m9 15 5-5-5-5z"/></svg>

<?xml version="1.0" encoding="UTF-8"?><!DOCTYPE svg PUBLIC "-//W3C//DTD SVG 1.1//EN" "http://www.w3.org/Graphics/SVG/1.1/DTD/svg11.dtd"><svg xmlns="http://www.w3.org/2000/svg" xmlns:xlink="http://www.w3.org/1999/xlink" version="1.1" id="mdi-map-marker-right" width="24" height="24" viewBox="0 0 24 24"><path d="M9 11.5C7.62 11.5 6.5 10.38 6.5 9S7.62 6.5 9 6.5 11.5 7.62 11.5 9 10.38 11.5 9 11.5M9 2C5.13 2 2 5.13 2 9C2 14.25 9 22 9 22S16 14.25 16 9C16 5.13 12.87 2 9 2M18 17L23 12L18 7V17Z" /></svg>
